X: 01065
T: LARRY
C: Bob McQuillen Jan'75
B: Bob's Note Book 1 #65
%R: reel
Z: 2019 John Chambers <jc:trillian.mit.edu>
M: C
L: 1/8
K: F
FG \
| A2c2 cdcB | A2F2 F2FG | A2c2 f3c | d2 c4 cB |\
| A2c2 cdcB | A2F2 F2FD | C2F2 G3E | F6 :|
|: FG \
| A2F2 A2F2 | CDFG A2F2 | A2F2 A2c2 | dcBA G2FG |\
| A2F2 A2F2 | CDFG A2c2 | d2f2 edcB | A2F2 F2 :|
%%begintext align
%% To LARRY HADDOCK, with Happy Memories of New Year's Eve at
%% Brush Farm. As I walk up the snowy pathway in the
%% darkness, I see a small boy in the window by the door,
%% standing in the golden light, waiting, smiling "Welcome".
%%endtext

%%sep 1 1 500

%%sep 1 1 500

